X:317
T:B317-  My Young Mary
Q:1/4=120
L:1/4
M:6/4
K:F
f2efcd|c2BABc|dB(A/G/)cA(G/F/)|GCGG3/2F/E|\
A2(G/F/)DEF|{A/}B2(A/G/)EFG|A=BcBGc|c2=Bc2||G|\
EFGAB|Ade^c3/2d/e|f3/2e/deAd|{e/}d2^cd2e|\
fcBAdG|G2FEcA|DGFEFG|G2FF3|]

